docs/errordomain.svg

<?xml version="1.0" encoding="UTF-8" standalone="no"?>
<svg
   xmlns:dc="http://purl.org/dc/elements/1.1/"
   xmlns:cc="http://creativecommons.org/ns#"
   xmlns:rdf="http://www.w3.org/1999/02/22-rdf-syntax-ns#"
   xmlns:svg="http://www.w3.org/2000/svg"
   xmlns="http://www.w3.org/2000/svg"
   width="16.036167"
   version="1.1"
   id="svg7384"
   height="16">
  <metadata
     id="metadata90">
    <rdf:RDF>
      <cc:Work
         rdf:about="">
        <dc:format>image/svg+xml</dc:format>
        <dc:type
           rdf:resource="http://purl.org/dc/dcmitype/StillImage" />
        <dc:title>elementary Symbolic Icon Theme</dc:title>
      </cc:Work>
    </rdf:RDF>
  </metadata>
  <title
     id="title9167">elementary Symbolic Icon Theme</title>
  <defs
     id="defs7386" />
  <path
     id="rect4162-1-2-3-8-7"
     d="M 3.5555556,0 C 2.6937778,0 2,0.7008571 2,1.5714286 L 2,9.428572 C 2,10.299143 2.6937778,11 3.5555556,11 L 14.444444,11 C 15.306223,11 16,10.299143 16,9.428572 L 16,1.5714286 C 16,0.7008571 15.306223,0 14.444444,0 Z"
     style="color:#fbc02d;clip-rule:nonzero;display:inline;overflow:visible;visibility:visible;opacity:1;isolation:auto;mix-blend-mode:normal;color-interpolation:sRGB;color-interpolation-filters:linearRGB;solid-color:#000000;solid-opacity:1;fill:#fbc02d;fill-opacity:1;fill-rule:nonzero;stroke:none;stroke-width:1;stroke-linecap:butt;stroke-linejoin:miter;stroke-miterlimit:4;stroke-dasharray:none;stroke-dashoffset:0;stroke-opacity:1;marker:none;color-rendering:auto;image-rendering:auto;shape-rendering:auto;text-rendering:auto;enable-background:accumulate" />
  <g
     transform="translate(-432.01847,10)"
     style="display:inline"
     label="status"
     id="layer9-5-3" />
  <g
     transform="translate(-432.01847,10)"
     style="display:inline"
     id="layer10-5-2" />
  <g
     transform="translate(-432.01847,10)"
     style="display:inline"
     id="layer13-9-9" />
  <g
     transform="translate(-432.01847,10)"
     id="layer14-5-5" />
  <g
     transform="translate(-432.01847,10)"
     style="display:inline"
     id="layer15-5-8" />
  <g
     transform="translate(-432.01847,10)"
     style="display:inline"
     id="g71291-6-4" />
  <g
     transform="translate(-700.78173,601.60207)"
     style="display:inline"
     id="layer9-2-2-5-0" />
  <g
     transform="translate(-700.78173,601.60207)"
     style="display:inline"
     id="layer10-0-6-1-9" />
  <g
     transform="translate(-700.78173,601.60207)"
     id="layer11-5-5-1" />
  <g
     transform="translate(-700.78173,601.60207)"
     id="layer14-7-9-0-7" />
  <g
     transform="translate(-700.78173,601.60207)"
     style="display:inline"
     id="layer15-5-2-6-7" />
  <g
     transform="translate(-700.78173,601.60207)"
     style="display:inline"
     id="g71291-8-4-6-6" />
  <g
     transform="translate(-700.78173,601.60207)"
     style="display:inline"
     id="g4953-5-5-9" />
  <g
     transform="translate(-700.78173,601.60207)"
     style="display:inline"
     id="layer12-4-2-3" />
  <g
     transform="translate(-287.04652,404.39676)"
     style="display:inline"
     id="layer10-2-9-7" />
  <g
     transform="translate(-287.04652,404.39676)"
     id="layer11-2-5" />
  <g
     transform="translate(-287.04652,404.39676)"
     style="display:inline"
     id="layer13-0-1-1" />
  <g
     transform="translate(-287.04652,404.39676)"
     id="layer14-3-5-4" />
  <g
     transform="translate(-287.04652,404.39676)"
     style="display:inline"
     id="layer15-1-4-7" />
  <g
     transform="translate(-287.04652,404.39676)"
     style="display:inline"
     id="g71291-5-9-2" />
  <g
     transform="translate(-287.04652,404.39676)"
     style="display:inline"
     id="g4953-51-8" />
  <g
     transform="translate(-287.04652,404.39676)"
     style="display:inline"
     id="layer12-8-0" />
  <path
     id="rect4194-8-1-7-2"
     d="m 4.9819164,3 0,1 7.9999996,0 0,-1 -7.9999996,0 z m 0,2 0,1 7.9999996,0 0,-1 -7.9999996,0 z m 0,2 0,1 7.9999996,0 0,-1 -7.9999996,0 z"
     style="color:#bebebe;clip-rule:nonzero;display:inline;overflow:visible;visibility:visible;opacity:0.5;isolation:auto;mix-blend-mode:normal;color-interpolation:sRGB;color-interpolation-filters:linearRGB;solid-color:#000000;solid-opacity:1;fill:#403757;fill-opacity:1;fill-rule:nonzero;stroke:none;stroke-width:1;stroke-linecap:butt;stroke-linejoin:miter;stroke-miterlimit:4;stroke-dasharray:none;stroke-dashoffset:0;stroke-opacity:1;marker:none;color-rendering:auto;image-rendering:auto;shape-rendering:auto;text-rendering:auto;enable-background:accumulate" />
  <g
     transform="translate(-433.00039,12)"
     style="display:inline"
     label="status"
     id="layer9" />
  <g
     transform="translate(-433.00039,12)"
     style="display:inline"
     id="layer10" />
  <g
     transform="translate(-433.00039,12)"
     style="display:inline"
     id="layer13" />
  <g
     transform="translate(-433.00039,12)"
     id="layer14" />
  <g
     transform="translate(-433.00039,12)"
     style="display:inline"
     id="layer15" />
  <g
     transform="translate(-433.00039,12)"
     style="display:inline"
     id="g71291" />
  <g
     transform="translate(-701.76365,603.60207)"
     style="display:inline"
     id="layer9-2-2" />
  <g
     transform="translate(-701.76365,603.60207)"
     style="display:inline"
     id="layer10-0-6" />
  <g
     transform="translate(-701.76365,603.60207)"
     id="layer11-5" />
  <g
     transform="translate(-701.76365,603.60207)"
     id="layer14-7-9" />
  <g
     transform="translate(-701.76365,603.60207)"
     style="display:inline"
     id="layer15-5-2" />
  <g
     transform="translate(-701.76365,603.60207)"
     style="display:inline"
     id="g71291-8-4" />
  <g
     transform="translate(-701.76365,603.60207)"
     style="display:inline"
     id="g4953-5" />
  <g
     transform="translate(-701.76365,603.60207)"
     style="display:inline"
     id="layer12-4" />
  <g
     transform="translate(-288.02844,406.39676)"
     style="display:inline"
     id="layer10-2" />
  <g
     transform="translate(-288.02844,406.39676)"
     id="layer11" />
  <g
     transform="translate(-288.02844,406.39676)"
     style="display:inline"
     id="layer13-0" />
  <g
     transform="translate(-288.02844,406.39676)"
     id="layer14-3" />
  <g
     transform="translate(-288.02844,406.39676)"
     style="display:inline"
     id="layer15-1" />
  <g
     transform="translate(-288.02844,406.39676)"
     style="display:inline"
     id="g71291-5" />
  <g
     transform="translate(-288.02844,406.39676)"
     style="display:inline"
     id="g4953" />
  <g
     transform="translate(-288.02844,406.39676)"
     style="display:inline"
     id="layer12" />
  <g
     transform="translate(-434.01847,15)"
     style="display:inline"
     label="status"
     id="layer9-5" />
  <g
     transform="translate(-434.01847,15)"
     style="display:inline"
     id="layer10-5" />
  <g
     transform="translate(-434.01847,15)"
     style="display:inline"
     id="layer13-9" />
  <g
     transform="translate(-434.01847,15)"
     id="layer14-5" />
  <g
     transform="translate(-434.01847,15)"
     style="display:inline"
     id="layer15-5" />
  <g
     transform="translate(-434.01847,15)"
     style="display:inline"
     id="g71291-6" />
  <g
     transform="translate(-702.78173,606.60207)"
     style="display:inline"
     id="layer9-2-2-5" />
  <g
     transform="translate(-702.78173,606.60207)"
     style="display:inline"
     id="layer10-0-6-1" />
  <g
     transform="translate(-702.78173,606.60207)"
     id="layer11-5-5" />
  <g
     transform="translate(-702.78173,606.60207)"
     id="layer14-7-9-0" />
  <g
     transform="translate(-702.78173,606.60207)"
     style="display:inline"
     id="layer15-5-2-6" />
  <g
     transform="translate(-702.78173,606.60207)"
     style="display:inline"
     id="g71291-8-4-6" />
  <g
     transform="translate(-702.78173,606.60207)"
     style="display:inline"
     id="g4953-5-5" />
  <g
     transform="translate(-702.78173,606.60207)"
     style="display:inline"
     id="layer12-4-2" />
  <g
     transform="translate(-289.04652,409.39676)"
     style="display:inline"
     id="layer10-2-9" />
  <g
     transform="translate(-289.04652,409.39676)"
     id="layer11-2" />
  <g
     transform="translate(-289.04652,409.39676)"
     style="display:inline"
     id="layer13-0-1" />
  <g
     transform="translate(-289.04652,409.39676)"
     id="layer14-3-5" />
  <g
     transform="translate(-289.04652,409.39676)"
     style="display:inline"
     id="layer15-1-4" />
  <g
     transform="translate(-289.04652,409.39676)"
     style="display:inline"
     id="g71291-5-9" />
  <g
     transform="translate(-289.04652,409.39676)"
     style="display:inline"
     id="g4953-51" />
  <g
     transform="translate(-289.04652,409.39676)"
     style="display:inline"
     id="layer12-8" />
  <path
     style="color:#bebebe;clip-rule:nonzero;display:inline;overflow:visible;visibility:visible;opacity:0.1;isolation:auto;mix-blend-mode:normal;color-interpolation:sRGB;color-interpolation-filters:linearRGB;solid-color:#000000;solid-opacity:1;fill:#800000;fill-opacity:1;fill-rule:nonzero;stroke:none;stroke-width:1;stroke-linecap:butt;stroke-linejoin:miter;stroke-miterlimit:4;stroke-dasharray:none;stroke-dashoffset:0;stroke-opacity:1;marker:none;color-rendering:auto;image-rendering:auto;shape-rendering:auto;text-rendering:auto;enable-background:accumulate"
     d="M 2 4 L 2 9.4277344 C 2 10.298305 2.6929097 11 3.5546875 11 L 14.445312 11 C 14.642115 11 14.826982 10.959355 15 10.892578 L 15 6.4492188 C 15 5.092504 13.992586 4 12.740234 4 L 2 4 z "
     id="rect4489" />
  <path
     style="color:#bebebe;clip-rule:nonzero;display:inline;overflow:visible;visibility:visible;opacity:0.05;isolation:auto;mix-blend-mode:normal;color-interpolation:sRGB;color-interpolation-filters:linearRGB;solid-color:#000000;solid-opacity:1;fill:#800000;fill-opacity:1;fill-rule:nonzero;stroke:none;stroke-width:1;stroke-linecap:butt;stroke-linejoin:miter;stroke-miterlimit:4;stroke-dasharray:none;stroke-dashoffset:0;stroke-opacity:1;marker:none;color-rendering:auto;image-rendering:auto;shape-rendering:auto;text-rendering:auto;enable-background:accumulate"
     d="M 2 3 L 2 9.4277344 C 2 10.298305 2.6929097 11 3.5546875 11 L 14.445312 11 C 15.307091 11 16 10.298305 16 9.4277344 L 16 6 C 16 4.338 14.662 3 13 3 L 2 3 z "
     id="rect4564" />
  <path
     id="rect4162-1-2-3-8"
     d="M 1.5555556,5 C 0.6937778,5 0,5.7008571 0,6.5714286 L 0,14.428572 C 0,15.299143 0.6937778,16 1.5555556,16 L 12.444444,16 C 13.306223,16 14,15.299143 14,14.428572 L 14,6.5714286 C 14,5.7008571 13.306223,5 12.444444,5 Z"
     style="color:#fbc02d;clip-rule:nonzero;display:inline;overflow:visible;visibility:visible;opacity:1;isolation:auto;mix-blend-mode:normal;color-interpolation:sRGB;color-interpolation-filters:linearRGB;solid-color:#000000;solid-opacity:1;fill:#fbc02d;fill-opacity:1;fill-rule:nonzero;stroke:none;stroke-width:1;stroke-linecap:butt;stroke-linejoin:miter;stroke-miterlimit:4;stroke-dasharray:none;stroke-dashoffset:0;stroke-opacity:1;marker:none;color-rendering:auto;image-rendering:auto;shape-rendering:auto;text-rendering:auto;enable-background:accumulate" />
  <path
     id="rect4194-8-1-7"
     d="m 2.9819164,8 0,1 7.9999996,0 0,-1 -7.9999996,0 z m 0,2 0,1 7.9999996,0 0,-1 -7.9999996,0 z m 0,2 0,1 7.9999996,0 0,-1 -7.9999996,0 z"
     style="color:#bebebe;clip-rule:nonzero;display:inline;overflow:visible;visibility:visible;opacity:0.5;isolation:auto;mix-blend-mode:normal;color-interpolation:sRGB;color-interpolation-filters:linearRGB;solid-color:#000000;solid-opacity:1;fill:#403757;fill-opacity:1;fill-rule:nonzero;stroke:none;stroke-width:1;stroke-linecap:butt;stroke-linejoin:miter;stroke-miterlimit:4;stroke-dasharray:none;stroke-dashoffset:0;stroke-opacity:1;marker:none;color-rendering:auto;image-rendering:auto;shape-rendering:auto;text-rendering:auto;enable-background:accumulate" />
  <path
     id="path3482-5-7-8"
     d="M 12.5 7 C 9.462444 7 7 9.4624441 7 12.5 C 7 13.829923 7.4721504 15.048966 8.2578125 16 L 12.445312 16 C 13.307092 16 14 15.298305 14 14.427734 L 14 11 L 14.445312 11 C 15.307092 11 16 10.298305 16 9.4277344 L 16 8.2578125 C 15.048966 7.4721503 13.829923 7 12.5 7 z "
     style="color:#bebebe;clip-rule:nonzero;display:inline;overflow:visible;visibility:visible;opacity:0.05;isolation:auto;mix-blend-mode:normal;color-interpolation:sRGB;color-interpolation-filters:linearRGB;solid-color:#000000;solid-opacity:1;fill:#800000;fill-opacity:1;fill-rule:nonzero;stroke:none;stroke-width:1;stroke-linecap:butt;stroke-linejoin:miter;stroke-miterlimit:4;stroke-dasharray:none;stroke-dashoffset:0;stroke-opacity:1;marker:none;color-rendering:auto;image-rendering:auto;shape-rendering:auto;text-rendering:auto;enable-background:accumulate;filter-blend-mode:normal;filter-gaussianBlur-deviation:0" />
  <path
     id="path3482-5-7"
     d="M 12.5 8 C 10.014727 8 8 10.014727 8 12.5 C 8 13.922146 8.6730346 15.175351 9.703125 16 L 12.445312 16 C 13.307092 16 14 15.298305 14 14.427734 L 14 11 L 14.445312 11 C 15.223845 11 15.860044 10.426337 15.976562 9.6738281 C 15.151429 8.6604873 13.908662 8 12.5 8 z "
     style="color:#bebebe;display:inline;overflow:visible;visibility:visible;fill:#800000;fill-opacity:1;fill-rule:nonzero;stroke:none;stroke-width:1;marker:none;enable-background:accumulate;clip-rule:nonzero;opacity:0.1;isolation:auto;mix-blend-mode:normal;color-interpolation:sRGB;color-interpolation-filters:linearRGB;solid-color:#000000;solid-opacity:1;stroke-linecap:butt;stroke-linejoin:miter;stroke-miterlimit:4;stroke-dasharray:none;stroke-dashoffset:0;stroke-opacity:1;filter-blend-mode:normal;filter-gaussianBlur-deviation:0;color-rendering:auto;image-rendering:auto;shape-rendering:auto;text-rendering:auto" />
  <path
     style="color:#bebebe;display:inline;overflow:visible;visibility:visible;fill:#ef2929;fill-opacity:1;fill-rule:nonzero;stroke:none;stroke-width:1.90939796;marker:none;enable-background:accumulate"
     id="path3482-5"
     d="m 12.50002,8.9965178 c -1.93299,0 -3.5,1.5670102 -3.5,3.5000002 0,1.93299 1.56701,3.5 3.5,3.5 1.93299,0 3.5,-1.56701 3.5,-3.5 0,-1.93299 -1.56701,-3.5000002 -3.5,-3.5000002 z"
     class="error" />
  <path
     style="color:#bebebe;display:inline;overflow:visible;visibility:visible;fill:#ffffff;fill-opacity:1;fill-rule:nonzero;stroke:none;stroke-width:1.90939796;marker:none;enable-background:accumulate"
     id="path3482-5-0"
     d="m 10.00002,11.965268 5,0 0,1.03125 -5,0 z"
     class="error" />
</svg>

<?xml version="1.0" encoding="UTF-8"?>
<svg id="svg7384" width="16.036" height="16" version="1.1" xmlns="http://www.w3.org/2000/svg" xmlns:cc="http://creativecommons.org/ns#" xmlns:dc="http://purl.org/dc/elements/1.1/" xmlns:rdf="http://www.w3.org/1999/02/22-rdf-syntax-ns#">
 <metadata id="metadata90">
  <rdf:RDF>
   <cc:Work rdf:about="">
    <dc:format>image/svg+xml</dc:format>
    <dc:type rdf:resource="http://purl.org/dc/dcmitype/StillImage"/>
    <dc:title>elementary Symbolic Icon Theme</dc:title>
   </cc:Work>
  </rdf:RDF>
 </metadata>
 <title id="title9167">elementary Symbolic Icon Theme</title>
 <path id="rect4162-1-2-3-8-7" d="m3.5556 0c-0.86178 0-1.5556 0.70086-1.5556 1.5714v7.8571c0 0.87057 0.69378 1.5714 1.5556 1.5714h10.889c0.86178 0 1.5556-0.70086 1.5556-1.5714v-7.8571c0-0.87057-0.69378-1.5714-1.5556-1.5714z" style="color-rendering:auto;color:#fbc02d;fill:#fbc02d;image-rendering:auto;isolation:auto;mix-blend-mode:normal;shape-rendering:auto;solid-color:#000000"/>
 <path id="rect4194-8-1-7-2" d="m4.9819 3v1h8v-1h-8zm0 2v1h8v-1h-8zm0 2v1h8v-1h-8z" style="color-rendering:auto;color:#bebebe;fill:#403757;image-rendering:auto;isolation:auto;mix-blend-mode:normal;opacity:.5;shape-rendering:auto;solid-color:#000000"/>
 <path id="rect4489" d="m2 4v5.4277c0 0.87057 0.69291 1.5723 1.5547 1.5723h10.891c0.1968 0 0.38167-0.040645 0.55469-0.10742v-4.4434c0-1.3567-1.0074-2.4492-2.2598-2.4492h-10.74z" style="color-rendering:auto;color:#bebebe;fill:#800000;image-rendering:auto;isolation:auto;mix-blend-mode:normal;opacity:.1;shape-rendering:auto;solid-color:#000000"/>
 <path id="rect4564" d="m2 3v6.4277c0 0.87057 0.69291 1.5723 1.5547 1.5723h10.891c0.86178 0 1.5547-0.7017 1.5547-1.5723v-3.4277c0-1.662-1.338-3-3-3h-11z" style="color-rendering:auto;color:#bebebe;fill:#800000;image-rendering:auto;isolation:auto;mix-blend-mode:normal;opacity:.05;shape-rendering:auto;solid-color:#000000"/>
 <path id="rect4162-1-2-3-8" d="m1.5556 5c-0.86178 0-1.5556 0.70086-1.5556 1.5714v7.8571c0 0.87057 0.69378 1.5714 1.5556 1.5714h10.889c0.86178 0 1.5556-0.70086 1.5556-1.5714v-7.8571c0-0.87057-0.69378-1.5714-1.5556-1.5714z" style="color-rendering:auto;color:#fbc02d;fill:#fbc02d;image-rendering:auto;isolation:auto;mix-blend-mode:normal;shape-rendering:auto;solid-color:#000000"/>
 <path id="rect4194-8-1-7" d="m2.9819 8v1h8v-1h-8zm0 2v1h8v-1h-8zm0 2v1h8v-1h-8z" style="color-rendering:auto;color:#bebebe;fill:#403757;image-rendering:auto;isolation:auto;mix-blend-mode:normal;opacity:.5;shape-rendering:auto;solid-color:#000000"/>
 <path id="path3482-5-7-8" d="m12.5 7c-3.0376 0-5.5 2.4624-5.5 5.5 0 1.3299 0.47215 2.549 1.2578 3.5h4.1875c0.86178 0 1.5547-0.7017 1.5547-1.5723v-3.4277h0.44531c0.86178 0 1.5547-0.7017 1.5547-1.5723v-1.1699c-0.95103-0.78566-2.1701-1.2578-3.5-1.2578z" style="color-rendering:auto;color:#bebebe;fill:#800000;filter-blend-mode:normal;filter-gaussianBlur-deviation:0;image-rendering:auto;isolation:auto;mix-blend-mode:normal;opacity:.05;shape-rendering:auto;solid-color:#000000"/>
 <path id="path3482-5-7" d="m12.5 8c-2.4853 0-4.5 2.0147-4.5 4.5 0 1.4221 0.67303 2.6754 1.7031 3.5h2.7422c0.86178 0 1.5547-0.7017 1.5547-1.5723v-3.4277h0.44531c0.77853 0 1.4147-0.57366 1.5312-1.3262-0.82513-1.0133-2.0679-1.6738-3.4766-1.6738z" style="color-rendering:auto;color:#bebebe;fill:#800000;filter-blend-mode:normal;filter-gaussianBlur-deviation:0;image-rendering:auto;isolation:auto;mix-blend-mode:normal;opacity:.1;shape-rendering:auto;solid-color:#000000"/>
 <path id="path3482-5" class="error" d="m12.5 8.9965c-1.933 0-3.5 1.567-3.5 3.5s1.567 3.5 3.5 3.5 3.5-1.567 3.5-3.5-1.567-3.5-3.5-3.5z" style="color:#bebebe;fill:#ef2929"/>
 <path id="path3482-5-0" class="error" d="m10 11.965h5v1.0312h-5z" style="color:#bebebe;fill:#fff"/>
</svg>
